X:1
T:Arkansas Traveler
L:1/8
M:4/4
K:D
V:1
"D" DFED "G" B,2B,2|"D" A,2 A,2 D2 D2 |"A" E2 E2 F2 F2 | EFED B,2 A,2 |$ %4
DFED B,2 B,2 | A,2 A,2 D2 D2 | dcdA B2 AG |1"D"  FDEF D2 D2 :|2"D" FDEF D2 de ||
"D" a2 af "G" g2 ge |"D" f2 fd "A"e2 A2 |"D" d2 d2 "A"e2 e2 |"D" f2 f2 "A" e2 de |
"D" a2af "G"g2ge|"D" f2 fd "A" e2 A2 |"D" dcdA "G" B2 AG |1"D" FDEF D2 de :|2"D" FDEF D4 |]
